X: 254
T:Miss McInnes's Reel -- Dandaleith
B:William Marshall's Scottish Airs, Melodies, Strathspeys, Reels &c (1822)
C:William Marshall
L:1/8
M:C|
O:Scotland
R:Reel
Z:Clark Bernst + Richard Robinson
%%Page:55 - 3
F:http://richardrobinson.tunebook.org.uk/tune/4097
%%TBL:{"version":1,"type":"tune","id":"4097"}
K:F
%%staves {1 2}
V:1
d | \
cF F/F/F (dc)BA | GABc dGBd | cF F/F/F (dc)BA | cfeg fFB :|
d | \
cfAf cfaf | egba gGBd | cfAf Bfcf | cfeg fFBd | \
cfAf cfaf | egba gGBd | bgaf (ag)fe | (gf)ed cFB |]
V:2 middle=d clef=bass
L:1/4
z/ | ffff | gggg | ffff | fc'ff/ :| \
z/ | ffff | gggg | ffba | bc'fB | ffff | gggg | efff | ccFB |]

